X: 17708
T: Holywell
R: hornpipe
M: 4/4
K: Gmajor
|:d2dg edcB|d2dg edcB|DGBG DGBG|DGBG cBAG|
d2dg edcB|d2dg edcB|gfga ecAF|G2GGG4:|
|:d2de dBGB|c2e2e2AB|c2cd cBAG|cdef g2ga|
fdeg fdef|gfga gfed|gfgd ecAF|G2GGG4:|

